X: 6
T: Sackett's Harbor
P: piffero primo a0089
O: Joe Bausk's Tape
%R:jig, march
F: http://ancients.sudburymuster.org/mus/col/pdf/contraF.pdf
Z: 2019 John Chambers <jc:trillian.mit.edu>
M: 6/8
L: 1/8
K: D
|: B3 d2e | fed c2B | A3 c2d | efe edc | B3 d2e | fed cde | f2B Bc^A | B3 z3 :|
|: d2 (3e/f/g/ a2b | afd afd | A2 (3B/c/d/ e2f | ecA ecA | d2 (3e/f/g/ a2b | afd dfa | b2B Bc^A | B3 z3 :|
|: dff f2a | gee e2g | fdd dcd | efe ecA | dff f2a | gee e2g | fdf gec | d3 :|
|: faa a3 | d'c'b a2g | fga agf efg gfe | faa a3 | d'c'b a2g | fga ABc | d3 z3 :|


